X: 28235
T: Mrs. Galvin's
R: jig
M: 6/8
K: Gmajor
d2c|:~B2A BGG|dGG BAG|~A3 ABA|GB/c/d gdc|
~B2A BGG|dGG BAG|~A3 ABA|1 AGF G2A:|2 AGF GBd||
|:~g2f fed|B2d def|~g2e fed|Bee e2g|gag fed|
Bdd def|~g3 gdB|1 AGG GBd:|2 AGG c2d||

